build/images/last-section/Vectorls-icon-15.svg

<svg width="62" height="83" viewBox="0 0 62 83" fill="none" xmlns="http://www.w3.org/2000/svg">
<path d="M29.3025 71.5443H27.8025V73.025L29.2831 73.0441L29.3025 71.5443ZM29.3025 65.9633H30.8025V64.4894L29.3289 64.4635L29.3025 65.9633ZM20.8879 63.5329L19.4755 63.0277L19.0963 64.0881L20.0086 64.7481L20.8879 63.5329ZM22.2118 59.831L23.0304 58.574L21.439 57.5375L20.7994 59.3258L22.2118 59.831ZM30.1439 62.2051L30.1378 63.7051H30.1439V62.2051ZM30.4749 50.2161L31.0403 48.8268L31.0327 48.8237L31.025 48.8206L30.4749 50.2161ZM29.7064 31.7573L29.9478 33.2377L31.2064 33.0325V31.7573H29.7064ZM29.7064 26.2101V24.7101H28.2064V26.2101H29.7064ZM33.1227 26.2101H34.6227V24.7101H33.1227V26.2101ZM33.1227 31.5717H31.6227V33.0619L33.1129 33.0716L33.1227 31.5717ZM40.2807 33.5014L41.6845 34.0298L42.1345 32.8343L41.026 32.1996L40.2807 33.5014ZM38.9063 37.1526L38.1371 38.4404L39.6779 39.3608L40.3102 37.681L38.9063 37.1526ZM31.9615 35.2735V36.7735H31.9692L31.9768 36.7735L31.9615 35.2735ZM32.9544 46.323L32.3786 47.7081L32.3874 47.7117L32.9544 46.323ZM32.7917 65.8451L32.5423 64.366L31.2917 64.5769V65.8451H32.7917ZM32.7917 71.5892L32.7724 73.0891L34.2917 73.1087V71.5892H32.7917ZM48.2802 14.2008C47.4517 14.2008 46.7802 14.8723 46.7802 15.7008C46.7802 16.5292 47.4517 17.2008 48.2802 17.2008V14.2008ZM60.3523 15.7008H61.8523C61.8523 14.8723 61.1807 14.2008 60.3523 14.2008V15.7008ZM60.3523 81.3672V82.8672C61.1807 82.8672 61.8523 82.1956 61.8523 81.3672H60.3523ZM2 81.3672H0.5C0.5 82.1956 1.17157 82.8672 2 82.8672L2 81.3672ZM2 15.7008V14.2008C1.17157 14.2008 0.5 14.8723 0.5 15.7008H2ZM14.0721 17.2008C14.9005 17.2008 15.5721 16.5292 15.5721 15.7008C15.5721 14.8723 14.9005 14.2008 14.0721 14.2008V17.2008ZM38.4912 8.20345C37.6628 8.20345 36.9912 8.87503 36.9912 9.70345C36.9912 10.5319 37.6628 11.2035 38.4912 11.2035V8.20345ZM48.2802 9.70345H49.7802C49.7802 8.87503 49.1086 8.20345 48.2802 8.20345V9.70345ZM48.2802 21.6305V23.1305C49.1086 23.1305 49.7802 22.459 49.7802 21.6305H48.2802ZM14.0721 21.6305H12.5721C12.5721 22.459 13.2437 23.1305 14.0721 23.1305V21.6305ZM14.0721 9.70345V8.20345C13.2437 8.20345 12.5721 8.87503 12.5721 9.70345H14.0721ZM23.8611 11.2035C24.6895 11.2035 25.3611 10.5319 25.3611 9.70345C25.3611 8.87503 24.6895 8.20345 23.8611 8.20345V11.2035ZM22.3835 9.70345C22.3835 10.5319 23.0551 11.2035 23.8835 11.2035C24.7119 11.2035 25.3835 10.5319 25.3835 9.70345H22.3835ZM31.1986 2.36719V0.867188V2.36719ZM37.0137 9.70345C37.0137 10.5319 37.6852 11.2035 38.5137 11.2035C39.3421 11.2035 40.0137 10.5319 40.0137 9.70345H37.0137ZM7.84191 26.182C7.84191 25.3535 7.17034 24.682 6.34191 24.682C5.51349 24.682 4.84191 25.3535 4.84191 26.182H7.84191ZM4.84191 52.4722C4.84191 53.3006 5.51349 53.9722 6.34191 53.9722C7.17034 53.9722 7.84191 53.3006 7.84191 52.4722H4.84191ZM12.2175 26.182C12.2175 25.3535 11.5459 24.682 10.7175 24.682C9.88909 24.682 9.21752 25.3535 9.21752 26.182H12.2175ZM9.21752 41.4002C9.21752 42.2287 9.88909 42.9002 10.7175 42.9002C11.5459 42.9002 12.2175 42.2287 12.2175 41.4002H9.21752ZM30.8025 71.5443V65.9633H27.8025V71.5443H30.8025ZM29.3289 64.4635C26.3537 64.4111 23.371 63.478 21.7672 62.3176L20.0086 64.7481C22.2306 66.3558 25.8562 67.4028 29.2761 67.463L29.3289 64.4635ZM22.3003 64.038L23.6242 60.3361L20.7994 59.3258L19.4755 63.0277L22.3003 64.038ZM21.3932 61.0879C23.9969 62.7836 27.0325 63.6923 30.1378 63.7051L30.1501 60.7051C27.6225 60.6947 25.151 59.9551 23.0304 58.574L21.3932 61.0879ZM30.1439 63.7051C32.3863 63.7051 34.3872 63.0616 35.856 61.8367C37.3441 60.5958 38.2017 58.8218 38.2017 56.7929H35.2017C35.2017 57.9258 34.7438 58.8579 33.9347 59.5327C33.1064 60.2234 31.8284 60.7051 30.1439 60.7051V63.7051ZM38.2017 56.7929C38.2017 54.8605 37.4955 53.2568 36.1834 51.9321C34.9251 50.6617 33.148 49.6845 31.0403 48.8268L29.9095 51.6055C31.8801 52.4074 33.2164 53.1996 34.0519 54.0432C34.8336 54.8324 35.2017 55.6873 35.2017 56.7929H38.2017ZM31.025 48.8206C28.2698 47.7347 26.2218 46.6343 24.8679 45.3304C23.577 44.0872 22.8872 42.6335 22.8872 40.652H19.8872C19.8872 43.4863 20.9364 45.7092 22.7869 47.4913C24.5744 49.2128 27.0703 50.4866 29.9249 51.6117L31.025 48.8206ZM22.8872 40.652C22.8872 36.922 25.4772 33.9668 29.9478 33.2377L29.465 30.2769C23.7933 31.2018 19.8872 35.2116 19.8872 40.652H22.8872ZM31.2064 31.7573V26.2101H28.2064V31.7573H31.2064ZM29.7064 27.7101H33.1227V24.7101H29.7064V27.7101ZM31.6227 26.2101V31.5717H34.6227V26.2101H31.6227ZM33.1129 33.0716C35.3662 33.0863 37.578 33.6825 39.5354 34.8031L41.026 32.1996C38.6208 30.8227 35.9024 30.0897 33.1325 30.0717L33.1129 33.0716ZM38.8769 32.973L37.5025 36.6242L40.3102 37.681L41.6845 34.0298L38.8769 32.973ZM39.6756 35.8649C37.3397 34.4695 34.6655 33.7459 31.9462 33.7736L31.9768 36.7735C34.1436 36.7513 36.2749 37.3279 38.1371 38.4404L39.6756 35.8649ZM31.9615 33.7735C29.5333 33.7735 27.6671 34.5076 26.4017 35.747C25.1496 36.9733 24.6218 38.5637 24.6218 40.0219H27.6218C27.6218 39.269 27.8933 38.4852 28.5009 37.8902C29.0951 37.3081 30.1488 36.7735 31.9615 36.7735V33.7735ZM24.6218 40.0219C24.6218 41.915 25.3369 43.3974 26.756 44.6344C28.0687 45.7787 29.9855 46.7132 32.3786 47.708L33.5302 44.9379C31.1326 43.9412 29.6331 43.1626 28.7272 42.3729C27.9276 41.676 27.6218 41.0037 27.6218 40.0219H24.6218ZM32.3874 47.7117C35.1314 48.832 37.0223 50.0212 38.2277 51.3947C39.3908 52.72 39.998 54.3103 39.998 56.4497H42.998C42.998 53.6552 42.172 51.341 40.4825 49.4159C38.8354 47.539 36.4544 46.1318 33.5214 44.9343L32.3874 47.7117ZM39.998 56.4497C39.998 60.0441 37.5311 63.5247 32.5423 64.366L33.0412 67.3242C39.3952 66.2527 42.998 61.5869 42.998 56.4497H39.998ZM31.2917 65.8451V71.5892H34.2917V65.8451H31.2917ZM32.8111 70.0894L29.3218 70.0444L29.2831 73.0441L32.7724 73.0891L32.8111 70.0894ZM48.2802 17.2008H60.3523V14.2008H48.2802V17.2008ZM58.8523 15.7008V81.3672H61.8523V15.7008H58.8523ZM60.3523 79.8672H2V82.8672H60.3523V79.8672ZM3.5 81.3672V15.7008H0.5V81.3672H3.5ZM2 17.2008H14.0721V14.2008H2V17.2008ZM38.4912 11.2035H48.2802V8.20345H38.4912V11.2035ZM46.7802 9.70345V21.6305H49.7802V9.70345H46.7802ZM48.2802 20.1305H14.0721V23.1305H48.2802V20.1305ZM15.5721 21.6305V9.70345H12.5721V21.6305H15.5721ZM14.0721 11.2035H23.8611V8.20345H14.0721V11.2035ZM25.3835 9.70345C25.3835 8.15418 25.9972 6.66925 27.0882 5.57506L24.9639 3.45681C23.3112 5.11427 22.3835 7.36132 22.3835 9.70345H25.3835ZM27.0882 5.57506C28.1791 4.48102 29.6577 3.86719 31.1986 3.86719V0.867188C28.8593 0.867188 26.6167 1.79922 24.9639 3.45681L27.0882 5.57506ZM31.1986 3.86719C32.7394 3.86719 34.218 4.48103 35.3089 5.57506L37.4333 3.45681C35.7805 1.79921 33.5379 0.867188 31.1986 0.867188V3.86719ZM35.3089 5.57506C36.3999 6.66925 37.0137 8.15418 37.0137 9.70345H40.0137C40.0137 7.36132 39.086 5.11427 37.4333 3.45681L35.3089 5.57506ZM4.84191 26.182V52.4722H7.84191V26.182H4.84191ZM9.21752 26.182V41.4002H12.2175V26.182H9.21752Z" fill="#004FFF"/>
</svg>

<svg width="62" height="83" fill="none" xmlns="http://www.w3.org/2000/svg"><path d="M29.302 71.544h-1.5v1.481l1.481.02.02-1.5zm0-5.58h1.5v-1.475l-1.473-.026-.027 1.5zm-8.414-2.431l-1.413-.505-.379 1.06.913.66.879-1.215zm1.324-3.702l.818-1.257-1.591-1.036-.64 1.788 1.413.505zm7.932 2.374l-.006 1.5h.006v-1.5zm.33-11.989l.566-1.39-.007-.002-.008-.003-.55 1.395zm-.768-18.459l.242 1.48 1.258-.205v-1.275h-1.5zm0-5.547v-1.5h-1.5v1.5h1.5zm3.417 0h1.5v-1.5h-1.5v1.5zm0 5.362h-1.5v1.49l1.49.01.01-1.5zm7.158 1.93l1.404.528.45-1.196-1.109-.634-.745 1.301zm-1.375 3.65l-.769 1.288 1.54.92.633-1.679-1.404-.528zm-6.944-1.879v1.5h.015l-.015-1.5zm.992 11.05l-.575 1.385.008.004.567-1.389zm-.162 19.522l-.25-1.479-1.25.21v1.27h1.5zm0 5.744l-.02 1.5 1.52.02v-1.52h-1.5zM48.28 14.201a1.5 1.5 0 1 0 0 3v-3zm12.072 1.5h1.5a1.5 1.5 0 0 0-1.5-1.5v1.5zm0 65.666v1.5a1.5 1.5 0 0 0 1.5-1.5h-1.5zM2 81.367H.5a1.5 1.5 0 0 0 1.5 1.5v-1.5zm0-65.666v-1.5a1.5 1.5 0 0 0-1.5 1.5H2zm12.072 1.5a1.5 1.5 0 0 0 0-3v3zm24.42-8.998a1.5 1.5 0 0 0 0 3v-3zm9.788 1.5h1.5a1.5 1.5 0 0 0-1.5-1.5v1.5zm0 11.928v1.5a1.5 1.5 0 0 0 1.5-1.5h-1.5zm-34.208 0h-1.5a1.5 1.5 0 0 0 1.5 1.5v-1.5zm0-11.928v-1.5a1.5 1.5 0 0 0-1.5 1.5h1.5zm9.79 1.5a1.5 1.5 0 0 0 0-3v3zm-1.478-1.5a1.5 1.5 0 1 0 3 0h-3zm8.815-7.336v-1.5 1.5zm5.815 7.336a1.5 1.5 0 1 0 3 0h-3zM7.842 26.182a1.5 1.5 0 1 0-3 0h3zm-3 26.29a1.5 1.5 0 0 0 3 0h-3zm7.375-26.29a1.5 1.5 0 1 0-3 0h3zm-3 15.218a1.5 1.5 0 1 0 3 0h-3zm21.585 30.144v-5.58h-3v5.58h3zm-1.473-7.08c-2.975-.053-5.958-.986-7.562-2.146l-1.758 2.43c2.222 1.608 5.847 2.655 9.267 2.715l.053-3zm-7.029-.426l1.324-3.702-2.825-1.01-1.323 3.702 2.824 1.01zm-.907-2.95a16.145 16.145 0 0 0 8.745 2.617l.012-3a13.145 13.145 0 0 1-7.12-2.131l-1.637 2.514zm8.75 2.617c2.243 0 4.244-.643 5.713-1.868 1.488-1.241 2.346-3.015 2.346-5.044h-3c0 1.133-.458 2.065-1.267 2.74-.829.69-2.107 1.172-3.791 1.172v3zm8.059-6.912c0-1.932-.706-3.536-2.019-4.86-1.258-1.271-3.035-2.248-5.143-3.106l-1.13 2.779c1.97.801 3.306 1.594 4.142 2.437.782.79 1.15 1.644 1.15 2.75h3zm-7.177-7.972c-2.755-1.086-4.803-2.187-6.157-3.49-1.291-1.244-1.98-2.698-1.98-4.679h-3c0 2.834 1.048 5.057 2.899 6.84 1.787 1.72 4.283 2.995 7.138 4.12l1.1-2.791zm-8.138-8.169c0-3.73 2.59-6.685 7.06-7.414l-.482-2.961c-5.672.925-9.578 4.935-9.578 10.375h3zm8.32-8.895V26.21h-3v5.547h3zm-1.5-4.047h3.416v-3h-3.417v3zm1.916-1.5v5.362h3V26.21h-3zm1.49 6.862c2.253.014 4.465.61 6.422 1.731l1.491-2.603a16.098 16.098 0 0 0-7.894-2.128l-.02 3zm5.764-.099l-1.375 3.651 2.808 1.057 1.374-3.651-2.807-1.057zm.799 2.892a14.777 14.777 0 0 0-7.73-2.091l.03 3a11.776 11.776 0 0 1 6.161 1.666l1.539-2.575zm-7.715-2.092c-2.428 0-4.294.735-5.56 1.974a5.964 5.964 0 0 0-1.78 4.275h3c0-.753.272-1.537.88-2.132.594-.582 1.648-1.117 3.46-1.117v-3zm-7.34 6.249c0 1.893.716 3.375 2.135 4.612 1.313 1.145 3.23 2.08 5.623 3.074l1.151-2.77c-2.397-.997-3.897-1.775-4.803-2.565-.8-.697-1.105-1.37-1.105-2.351h-3zm7.766 7.69c2.744 1.12 4.635 2.31 5.84 3.683 1.164 1.325 1.771 2.915 1.771 5.055h3c0-2.795-.826-5.109-2.515-7.034-1.648-1.877-4.029-3.284-6.962-4.482l-1.134 2.778zm7.611 8.738c0 3.594-2.467 7.075-7.456 7.916l.5 2.958c6.353-1.071 9.956-5.737 9.956-10.874h-3zm-8.706 9.395v5.744h3v-5.744h-3zm1.52 4.244l-3.49-.045-.039 3 3.49.045.038-3zM48.28 17.201h12.072v-3H48.28v3zm10.572-1.5v65.666h3V15.701h-3zm1.5 64.166H2v3h58.352v-3zM3.5 81.367V15.701h-3v65.666h3zM2 17.201h12.072v-3H2v3zm36.491-5.998h9.79v-3h-9.79v3zm8.29-1.5v11.928h3V9.703h-3zm1.5 10.428h-34.21v3H48.28v-3zm-32.709 1.5V9.703h-3v11.928h3zm-1.5-10.428h9.79v-3h-9.79v3zm11.312-1.5c0-1.549.613-3.034 1.704-4.128l-2.124-2.118a8.847 8.847 0 0 0-2.58 6.246h3zm1.704-4.128a5.804 5.804 0 0 1 4.11-1.708v-3a8.802 8.802 0 0 0-6.234 2.59l2.124 2.118zm4.11-1.708c1.541 0 3.02.614 4.11 1.708l2.125-2.118A8.804 8.804 0 0 0 31.2.867v3zm4.11 1.708a5.847 5.847 0 0 1 1.706 4.128h3a8.847 8.847 0 0 0-2.58-6.246l-2.125 2.118zM4.843 26.182v26.29h3v-26.29h-3zm4.376 0V41.4h3V26.182h-3z" fill="#004FFF"/></svg>
